icons/outline/adjustments-alt.svg

<!--
category: System
tags: [equalizer, sliders, controls, settings, filter]
version: "1.11"
unicode: "ec37"
-->
<svg
  xmlns="http://www.w3.org/2000/svg"
  width="24"
  height="24"
  viewBox="0 0 24 24"
  fill="none"
  stroke="currentColor"
  stroke-width="2"
  stroke-linecap="round"
  stroke-linejoin="round"
>
  <path d="M4 8h4v4h-4zm2 -4l0 4m0 4l0 8m4 -6h4v4h-4zm2 -10l0 10m0 4l0 2m4 -15h4v4h-4zm2 -1l0 1m0 4l0 11" />
</svg>

<!--
category: System
tags: [equalizer, sliders, controls, settings, filter]
version: "1.11"
unicode: "ec37"
-->
<svg
  xmlns="http://www.w3.org/2000/svg"
  width="24"
  height="24"
  viewBox="0 0 24 24"
  fill="none"
  stroke="currentColor"
  stroke-width="2"
  stroke-linecap="round"
  stroke-linejoin="round"
>
    <path d="M4 8h4v4h-4zM6 4l0 4M6 12l0 8M10 14h4v4h-4zM12 4l0 10M12 18l0 2M16 5h4v4h-4zM18 4l0 1M18 9l0 11" />
</svg>
